lib/healthicons/icons/solid/typography/W.svg

<svg fill="none" height="48" viewBox="0 0 48 48" width="48" xmlns="http://www.w3.org/2000/svg"><path clip-rule="evenodd" d="m11.671 10.027c-1.0895.1816-1.82555 1.2121-1.644 2.3016l4 24c.1391.8344.788 1.491 1.6207 1.64.8326.1489 1.6689-.2421 2.0886-.9765l6.2635-10.9611 6.2635 10.9611c.4197.7344 1.256 1.1254 2.0887.9765.8326-.149 1.4816-.8056 1.6206-1.64l4-24c.1816-1.0895-.5544-2.12-1.644-2.3016-1.0895-.18155-2.12.5545-2.3016 1.644l-3.0768 18.4609-5.2139-9.1244c-.3561-.6231-1.0188-1.0077-1.7365-1.0077s-1.3804.3846-1.7365 1.0077l-5.2139 9.1244-3.0768-18.4609c-.1816-1.0895-1.212-1.82555-2.3016-1.644z" fill="#333" fill-rule="evenodd"/></svg>

<svg width="48" height="48" viewBox="0 0 48 48" fill="none" xmlns="http://www.w3.org/2000/svg">
<path fill-rule="evenodd" clip-rule="evenodd" d="M11.671 10.027C10.5815 10.2086 9.84545 11.2391 10.027 12.3286L14.027 36.3286C14.1661 37.163 14.815 37.8196 15.6477 37.9686C16.4803 38.1175 17.3166 37.7265 17.7363 36.9921L23.9998 26.031L30.2633 36.9921C30.683 37.7265 31.5193 38.1175 32.352 37.9686C33.1846 37.8196 33.8336 37.163 33.9726 36.3286L37.9726 12.3286C38.1542 11.2391 37.4182 10.2086 36.3286 10.027C35.2391 9.84545 34.2086 10.5815 34.027 11.671L30.9502 30.1319L25.7363 21.0075C25.3802 20.3844 24.7175 19.9998 23.9998 19.9998C23.2821 19.9998 22.6194 20.3844 22.2633 21.0075L17.0494 30.1319L13.9726 11.671C13.791 10.5815 12.7606 9.84545 11.671 10.027Z" fill="#333333"/>
</svg>
